!!!COA1:	Ockeghem, Johannes
!!!COA2:	Martini, Johannes
!!!COA3:	Malcort
!!!CDT:	~1425-1497/02/06
!!!OTL:	Malheur me bat
!!!AGN:	Chanson
!!!SCT:	Ock3026
!!!SCA:	Ock3026
!!!voices:	3
**kern	**kern	**kern
*staff3	*staff2	*staff1
*Ivox	*Ivox	*Ivox
*I"Tenor	*I"Contra	*I"Superius
*I'T	*I'C	*I'S
*clefGv2	*clefGv2	*clefG2
*k[]	*k[]	*k[]
*M2/1	*M2/1	*M2/1
*met(C|)	*met(C|)	*met(C|)
=1-	=1-	=1-
0E	0e	0r
=2	=2	=2
1B	1.d	0r
1B	.	.
.	4c\	.
.	4B\	.
=3	=3	=3
1c	1A	0e
1c	1A	.
=4	=4	=4
1B	2G/	1b
.	2.d\	.
1G	.	1b
.	4B\	.
.	[2e\	.
=5	=5	=5
1A	4e\]	1cc
.	4d\	.
.	4c\	.
.	4B\	.
1A	1c	1cc
=6	=6	=6
2G/	1d	1b
1G	.	.
.	1B	1g
4F/	.	.
4E/	.	.
=7	=7	=7
1F	2A/	1a
.	1c	.
1F	.	1a
.	2d\	.
=8	=8	=8
2.E/	2.e\	2.g/
4F/	4d\	4a/
2G/	2B\	2b\
[2A/	[2c\	[2e/
=9	=9	=9
4A/]	4c\]	4e/]
4G/	4d\	4f/
2E/	2e\	2g/
2F/	2A/	2a/
2G/	2B\	2e/
=10	=10	=10
2A/	2c\	2f/
2E/	1B	1e
1F	.	.
.	2A/	2d/
=11	=11	=11
0E	1B	1e
.	2r	1r
.	[2e\	.
=12	=12	=12
1r	4e\]	1b
.	4d\	.
.	2B\	.
1e	1c	1g
=13	=13	=13
1c	1A	1a
2d\	2G/	1b
[2e\	[2E/	.
=14	=14	=14
2e\]	2E/]	1cc
2A/	2F/	.
1B	1G	2b\
.	.	[2g/
=15	=15	=15
1c	1C	2g/]
.	.	2a/
2B\	1r	1b
[2G/	.	.
=16	=16	=16
2G/]	1C	1e
2A/	.	.
1B	2.G/	2r
.	.	[2b\
.	4A/	.
=17	=17	=17
2E/	2B\	2b\]
1e	2E/	2cc\
.	2r	2b\
4d\	2E/	[2ee\
4c\	.	.
=18	=18	=18
4d\	2.G/	2ee\]
4c\	.	.
4B\	.	4dd\
4A/	4A/	4cc\
2.G/	4B\	4dd\
.	4A/	4cc\
.	4G/	4b\
4A/	4F/	4a/
=19	=19	=19
2B\	2.E/	2.g/
2c\	.	.
.	4F/	4a/
2B\	2G/	2b\
[2e\	[2A/	[2cc\
=20	=20	=20
4e\]	2A/]	4cc\]
4d\	.	4b\
2B\	2G/	1b
1c	1A	.
.	.	2a/
=21	=21	=21
2B\	1E	2b\
2.e\	.	2.cc\
.	2c\	.
4d\	.	4b\
2f\	2B\	[2dd\
=22	=22	=22
2e\	2c\	4dd\]
.	.	4cc\
2c\	2A/	1cc
1d	1G	.
.	.	2b\
=23	=23	=23
2r	2E/	2cc\
1c	2F/	1a
.	1D	.
2B\	.	4g/
.	.	4f/
=24	=24	=24
2c\	2C/	1e
1A	1c	.
.	.	2f/
2G/	2B\	[2e/
=25	=25	=25
2A/	2c\	2e/]
2c\	2A/	1a
1B	1E	.
.	.	2g/
=26	=26	=26
2A/	2F/	2a/
1e	2E/	2cc\
.	1G	1b
2d\	.	.
=27	=27	=27
2c\	2A/	2a/
1e	2E/	1cc
.	1F	.
2d\	.	4b\
.	.	4a/
=28	=28	=28
1e;	1E;	0g;
2e\	1E	.
4d\	.	.
4c\	.	.
=29	=29	=29
2B\	0E	1r
2c\	.	.
2B\	.	1g
[2G/	.	.
=30	=30	=30
4G/]	0E	1g
4A/	.	.
2B\	.	.
2E/	.	1g
[2e\	.	.
=31	=31	=31
2e\]	1r	0g
4d\	.	.
4c\	.	.
1B	1E	.
=32	=32	=32
2A/	1F	1a
1c	.	.
.	1F	1a
2d\	.	.
=33	=33	=33
2.e\	2.E/	1g
4d\	4F/	.
2B\	2G/	1g
[2c\	[2C/	.
=34	=34	=34
2c\]	4C/]	1e
.	4D/	.
4B\	4E/	.
4A/	4F/	.
1B	2.G/	2d/
.	.	[2g/
.	4A/	.
=35	=35	=35
1E	1B	2g/]
.	.	4f/
.	.	4e/
1E	2c\	4f/
.	.	4e/
.	[2B\	4d/
.	.	4c/
=36	=36	=36
1E	2B\]	2B/
.	4A/	1e
.	4G/	.
1F	1A	.
.	.	2d/
=37	=37	=37
1E	2G/	1e
.	4F/	.
.	4E/	.
2r	1D	1f
[2A/	.	.
=38	=38	=38
2A/]	1C	1e
2G/	.	.
1A	1F	2r
.	.	[2a/
=39	=39	=39
1B	2E/	2a/]
.	2G/	2g/
1c	2F/	1a
.	[2A/	.
=40	=40	=40
2B\	4A/]	1b
.	4G/	.
2G/	1G	.
1A	.	1cc
.	2F/	.
=41	=41	=41
2G/	2G/	2b\
1G	2E/	2g/
.	1D	1a
2F#i/	.	.
=42	=42	=42
1G	1r	2g/
.	.	1g
1r	1D	.
.	.	2f#i/
=43	=43	=43
1.G	2.E/	0g
.	4F/	.
.	2G/	.
[2c\	2E/	.
=44	=44	=44
2c\]	1F	1r
2d\	.	.
[1e	2.E/	1g
.	4F/	.
=45	=45	=45
2e\]	2G/	2g/
1f	2.D/	1a
.	4E/	.
4e\	4F/	4g/
4d\	4G/	4f/
=46	=46	=46
1.c	2.A/	1.e
.	4G/	.
.	2E/	.
[2d\	2D/	[2f/
=47	=47	=47
4d\]	2F/	4f/]
4c\	.	4e/
2A/	2A/	2c/
1B	1G	1d
=48	=48	=48
0c	2.C/	2.e/
.	4D/	4f/
.	2E/	2g/
.	2F/	2a/
=49	=49	=49
1r	2G/	2g/
.	2.A/	1cc
1c	.	.
.	4B\	.
.	2c\	4b\
.	.	4a/
=50	=50	=50
1d	2G/	2b\
.	2B\	2dd\
1e	2A/	2cc\
.	[2c\	[2ee\
=51	=51	=51
2.c\	4c\]	4ee\]
.	4B\	4dd\
.	2A/	2.cc\
4d\	.	.
2e\	2c\	.
.	.	4b\
[2f\	[2B\	[2dd\
=52	=52	=52
4f\]	2B\]	4dd\]
4e\	.	4cc\
4d\	2c\	4b\
4c\	.	4a/
1d	1G	1b
=53	=53	=53
2c\	2E/	1cc
1c	2F/	.
.	1D	1r
2B\	.	.
=54	=54	=54
1c	2C/	1cc
.	1F	.
1r	.	2dd\
.	2G/	[2ee\
=55	=55	=55
1c	1A	2ee\]
.	.	4dd\
.	.	4cc\
2d\	2B\	2b\
[2e\	2A/	[2cc\
=56	=56	=56
2e\]	1c	2cc\]
4d\	.	4b\
4c\	.	4a/
2B\	2d\	2g/
[2c\	[2e\	[2a/
=57	=57	=57
2c\]	2e\]	2a/]
4B\	4d\	4g/
4A/	4c\	4f/
2G/	2B\	2e/
[2A/	[2c\	[2f/
=58	=58	=58
4A/]	4c\]	4f/]
4G/	4B\	4e/
2E/	4A/	2c/
.	4G/	.
1F	1A	1d
=59	=59	=59
0El	0Bl	0el
==	==	==
*-	*-	*-
!!!RDF**kern: l=long note in original notation
!!!RDF**kern: i=editorial accidental
!!!ENC:	Chris Gage 06-26-2012
!!!END:	2012/08/10/
!!!EED:	Jesse Rodin
!!!EEV:	2013/04/27/
!!attribution-level@Ock: 4 (doubtful)
!!attribution-level@Mar: 4 (doubtful)
!!!ONB:	Translated from MusicXML and edited on 2012/08/13/ by Craig Sapp
!!muse2ps: C^Malcort/Ockeghem?/Martini?^i2I150v95,95,150Q16c105
